la/envelope-square-solid.svg

<svg xmlns="http://www.w3.org/2000/svg" viewBox="0 0 32 32" height="1em" width="1em">
  <path d="M 5 5 L 5 27 L 27 27 L 27 5 Z M 7 7 L 25 7 L 25 25 L 7 25 Z M 9 10 L 9 22 L 23 22 L 23 10 Z M 11.8125 12 L 20.1875 12 L 16 14.78125 Z M 11 13.875 L 15.4375 16.84375 L 16 17.1875 L 16.5625 16.84375 L 21 13.875 L 21 20 L 11 20 Z"/>
</svg>

<svg xmlns="http://www.w3.org/2000/svg" viewBox="0 0 32 32" height="1em" width="1em">
  <path d="M5 5v22h22V5Zm2 2h18v18H7Zm2 3v12h14V10Zm2.813 2h8.374L16 14.781ZM11 13.875l4.438 2.969.562.343.563-.343L21 13.875V20H11Z"/>
</svg>
